svg_80x80/sql.svg

<svg viewBox="0 0 80 80" xmlns="http://www.w3.org/2000/svg">
<rect width="80" height="80" fill="white"/>
<path d="M39.6301 22.6713V74.999H40C54.9112 74.999 67 70.5962 67 65.1629V12.8369C66.9988 18.2689 54.9104 22.6722 40 22.6722C39.8765 22.6722 39.7532 22.6719 39.6301 22.6713Z" fill="#227CC8"/>
<path d="M13 12.8362V65.162C13 70.5953 25.0888 74.9999 40 74.9999V22.6723C25.0888 22.6723 13 18.2686 13 12.8362Z" fill="#0072C6"/>
<path fill-rule="evenodd" clip-rule="evenodd" d="M61.4794 12.2687C61.4794 15.8552 51.8629 18.7586 40 18.7586C28.1371 18.7586 18.5188 15.8552 18.5188 12.2687C18.5188 8.68221 28.1371 5.77881 40 5.77881C51.8629 5.77881 61.4794 8.68401 61.4794 12.2687Z" fill="#7FBA00"/>
<path fill-rule="evenodd" clip-rule="evenodd" d="M56.9802 16.2365C59.7918 15.1394 61.482 13.766 61.482 12.2729C61.4811 8.68645 51.8646 5.78125 39.9999 5.78125C28.1352 5.78125 18.5205 8.68645 18.5205 12.2729C18.5205 13.7651 20.2098 15.1394 23.0223 16.2365C26.949 14.7029 33.0861 13.7138 40.0008 13.7138C46.9155 13.7138 53.0508 14.7029 56.9802 16.2365Z" fill="#B8D432"/>
<path fill-rule="evenodd" clip-rule="evenodd" d="M31.4248 49.1582C31.4248 50.7845 30.8389 52.0436 29.6653 52.9355C28.4917 53.8274 26.8735 54.2747 24.8062 54.2747C23.0476 54.2747 21.5779 53.9561 20.3971 53.318V49.4921C21.7597 50.6558 23.2609 51.2381 24.9007 51.2381C25.6927 51.2381 26.3056 51.0788 26.7376 50.7593C27.1696 50.4398 27.3856 50.0186 27.3856 49.4912C27.3856 48.9737 27.1777 48.5237 26.7619 48.1412C26.3461 47.7587 25.5001 47.2646 24.2248 46.6589C21.6256 45.4331 20.3269 43.7573 20.3269 41.6396C20.3269 40.1024 20.893 38.8694 22.027 37.9406C23.161 37.0118 24.6649 36.5483 26.5414 36.5483C28.2055 36.5483 29.5825 36.7688 30.6778 37.2062V40.7801C29.5294 39.9827 28.2217 39.5849 26.7565 39.5849C26.0203 39.5849 25.438 39.7415 25.0105 40.0556C24.8073 40.1959 24.6422 40.3847 24.5303 40.6049C24.4185 40.8251 24.3632 41.0697 24.3697 41.3165C24.3697 41.8583 24.5416 42.3029 24.8872 42.6494C25.2328 42.9959 25.9384 43.4243 27.0076 43.9346C28.6006 44.6924 29.7346 45.4601 30.4132 46.2413C31.0918 47.0225 31.4248 47.9963 31.4248 49.1582ZM49.7578 45.2864C49.7578 47.3024 49.3015 49.0529 48.3907 50.5334C47.4799 52.0139 46.1965 53.0543 44.5414 53.6528L49.4833 58.2545H44.4937L40.9648 54.2738C39.4519 54.2189 38.0866 53.8157 36.8707 53.0669C35.6548 52.3181 34.7152 51.2921 34.0546 49.9889C33.394 48.6857 33.0619 47.2331 33.0619 45.632C33.0619 43.8554 33.4201 42.2714 34.1365 40.8809C34.8529 39.4904 35.8609 38.4203 37.1605 37.6715C38.4601 36.9227 39.9478 36.5483 41.629 36.5483C43.1959 36.5483 44.6008 36.911 45.841 37.6364C47.0812 38.3618 48.0424 39.3923 48.7282 40.7315C49.414 42.0707 49.7578 43.5899 49.7578 45.2864ZM45.7186 45.5024C45.7186 43.7645 45.3424 42.3929 44.5891 41.384C43.8358 40.3751 42.8071 39.8711 41.4994 39.8711C40.1683 39.8711 39.1036 40.3769 38.3026 41.3876C37.5016 42.3983 37.1029 43.7465 37.1029 45.4277C37.1029 47.1017 37.4944 48.4373 38.2783 49.4372C39.0622 50.4371 40.1035 50.9366 41.4031 50.9366C42.727 50.9366 43.7755 50.4524 44.5522 49.4849C45.3289 48.5174 45.7186 47.1908 45.7186 45.5024ZM62.7223 53.975H52.5748V36.8363H56.4124V50.8439H62.7214L62.7223 53.975Z" fill="white"/>
</svg>

<svg xmlns="http://www.w3.org/2000/svg" viewBox="0 0 80 80">
  <path fill="#fff" d="M0 0h80v80H0z"/>
  <path fill="#227CC8" d="M39.63 22.67V75H40c14.91 0 27-4.4 27-9.84V12.84c0 5.43-12.09 9.83-27 9.83h-.37Z"/>
  <path fill="#0072C6" d="M13 12.84v52.32C13 70.6 25.09 75 40 75V22.67c-14.91 0-27-4.4-27-9.83Z"/>
  <path fill="#7FBA00" fill-rule="evenodd" d="M61.48 12.27c0 3.59-9.62 6.49-21.48 6.49-11.86 0-21.48-2.9-21.48-6.5 0-3.58 9.62-6.48 21.48-6.48 11.86 0 21.48 2.9 21.48 6.49Z" clip-rule="evenodd"/>
  <path fill="#B8D432" fill-rule="evenodd" d="M56.98 16.24c2.81-1.1 4.5-2.47 4.5-3.97 0-3.58-9.62-6.49-21.48-6.49-11.86 0-21.48 2.9-21.48 6.5 0 1.49 1.69 2.86 4.5 3.96C26.95 14.7 33.1 13.7 40 13.7c6.92 0 13.05 1 16.98 2.53Z" clip-rule="evenodd"/>
  <path fill="#fff" fill-rule="evenodd" d="M31.42 49.16c0 1.62-.58 2.88-1.75 3.78-1.18.89-2.8 1.33-4.86 1.33a9.19 9.19 0 0 1-4.41-.95v-3.83a6.78 6.78 0 0 0 4.5 1.75c.8 0 1.4-.16 1.84-.48.43-.32.65-.74.65-1.27 0-.52-.21-.97-.63-1.35-.41-.38-1.26-.88-2.54-1.48-2.6-1.23-3.9-2.9-3.9-5.02 0-1.54.57-2.77 1.7-3.7a6.9 6.9 0 0 1 4.52-1.4c1.67 0 3.04.23 4.14.67v3.57a6.71 6.71 0 0 0-3.92-1.2 2.9 2.9 0 0 0-1.75.48 1.49 1.49 0 0 0-.64 1.26c0 .54.17.98.52 1.33.34.35 1.05.77 2.12 1.28a10.5 10.5 0 0 1 3.4 2.31 4.29 4.29 0 0 1 1.01 2.92Zm18.34-3.87c0 2.01-.46 3.76-1.37 5.24a7.3 7.3 0 0 1-3.85 3.12l4.94 4.6H44.5l-3.53-3.98a8.24 8.24 0 0 1-4.09-1.2 7.55 7.55 0 0 1-2.82-3.08 9.5 9.5 0 0 1-.99-4.36c0-1.77.36-3.36 1.08-4.75a7.66 7.66 0 0 1 3.02-3.2 8.78 8.78 0 0 1 4.47-1.13c1.57 0 2.97.36 4.21 1.09a7.4 7.4 0 0 1 2.89 3.1 9.85 9.85 0 0 1 1.03 4.55Zm-4.04.21c0-1.74-.38-3.1-1.13-4.12a3.65 3.65 0 0 0-3.1-1.5c-1.32 0-2.39.5-3.19 1.5a6.32 6.32 0 0 0-1.2 4.05c0 1.67.4 3 1.18 4 .78 1 1.82 1.5 3.12 1.5 1.33 0 2.38-.48 3.15-1.45a6.2 6.2 0 0 0 1.17-3.98Zm17 8.48H52.57V36.84h3.84v14h6.31v3.13Z" clip-rule="evenodd"/>
</svg>
